images/artwork.svg

<svg xmlns="http://www.w3.org/2000/svg" width="14" height="14">
    <path d="M4 0l1 2h1L5 4l1 2-1 2 1 2-1 2h4l-1-2 1-2-1-2 1-2-1-2h1l1-2zm3 3a1 1 0 011 1 1 1 0 01-1 1 1 1 0 01-1-1 1 1 0 011-1zm0 4a1 1 0 011 1 1 1 0 01-1 1 1 1 0 01-1-1 1 1 0 011-1zm-4 6v1h8v-1z" fill="none" stroke="#fff" stroke-width="3" stroke-linecap="round" stroke-linejoin="round" stroke-opacity=".5" paint-order="markers stroke fill"/>
    <path d="M4 0l1 2h1L5 4l1 2-1 2 1 2-1 2h4l-1-2 1-2-1-2 1-2-1-2h1l1-2zm3 3a1 1 0 011 1 1 1 0 01-1 1 1 1 0 01-1-1 1 1 0 011-1zm0 4a1 1 0 011 1 1 1 0 01-1 1 1 1 0 01-1-1 1 1 0 011-1zm-4 6v1h8v-1z" paint-order="markers stroke fill"/>
</svg>

<?xml version="1.0" encoding="UTF-8" standalone="no"?>
<svg xmlns:dc="http://purl.org/dc/elements/1.1/" xmlns:cc="http://creativecommons.org/ns#" xmlns:rdf="http://www.w3.org/1999/02/22-rdf-syntax-ns#" xmlns:svg="http://www.w3.org/2000/svg" xmlns="http://www.w3.org/2000/svg" xmlns:sodipodi="http://sodipodi.sourceforge.net/DTD/sodipodi-0.dtd" xmlns:inkscape="http://www.inkscape.org/namespaces/inkscape" width="14" height="14" id="svg3800" version="1.1" viewBox="0 0 14 14" sodipodi:docname="artwork.svg" inkscape:version="0.92.3 (2405546, 2018-03-11)">
  <sodipodi:namedview pagecolor="#ffffff" bordercolor="#666666" borderopacity="1" objecttolerance="10" gridtolerance="10" guidetolerance="10" inkscape:pageopacity="0" inkscape:pageshadow="2" inkscape:window-width="1881" inkscape:window-height="1051" id="namedview10688" showgrid="false" inkscape:zoom="16.857143" inkscape:cx="-3.4703389" inkscape:cy="7.0000001" inkscape:window-x="0" inkscape:window-y="0" inkscape:window-maximized="1" inkscape:current-layer="svg3800" inkscape:pagecheckerboard="true" />
  <defs id="defs3802" />
  <metadata id="metadata3805">
    <rdf:RDF>
      <cc:Work rdf:about="">
        <dc:format>image/svg+xml</dc:format>
        <dc:type rdf:resource="http://purl.org/dc/dcmitype/StillImage" />
        <dc:title></dc:title>
      </cc:Work>
    </rdf:RDF>
  </metadata>
  <path style="opacity:1;fill:none;fill-opacity:1;stroke:#ffffff;stroke-width:3;stroke-linecap:round;stroke-linejoin:round;stroke-miterlimit:4;stroke-dasharray:none;stroke-opacity:0.50196078;paint-order:markers stroke fill" d="M 4,0 L 5,2 H 6 L 5,4 L 6,6 L 5,8 L 6,10 L 5,12 H 9 L 8,10 L 9,8 L 8,6 L 9,4 L 8,2 H 9 L 10,0 Z M 7,3 A 1,1 0 0 1 8,4 A 1,1 0 0 1 7,5 A 1,1 0 0 1 6,4 A 1,1 0 0 1 7,3 Z M 7,7 A 1,1 0 0 1 8,8 A 1,1 0 0 1 7,9 A 1,1 0 0 1 6,8 A 1,1 0 0 1 7,7 Z M 3,13 V 14 H 11 V 13 Z" id="outline" inkscape:connector-curvature="0" />
  <path id="rect818" d="M 4,0 L 5,2 H 6 L 5,4 L 6,6 L 5,8 L 6,10 L 5,12 H 9 L 8,10 L 9,8 L 8,6 L 9,4 L 8,2 H 9 L 10,0 Z M 7,3 A 1,1 0 0 1 8,4 A 1,1 0 0 1 7,5 A 1,1 0 0 1 6,4 A 1,1 0 0 1 7,3 Z M 7,7 A 1,1 0 0 1 8,8 A 1,1 0 0 1 7,9 A 1,1 0 0 1 6,8 A 1,1 0 0 1 7,7 Z M 3,13 V 14 H 11 V 13 Z" style="opacity:1;fill:#000000;fill-opacity:1;stroke:none;stroke-width:0.02481934;stroke-linecap:square;stroke-miterlimit:4;stroke-dasharray:none;stroke-opacity:1;paint-order:markers stroke fill" inkscape:connector-curvature="0" />
</svg>
